svgs/sharp-solid/transporter-5.svg

<svg xmlns="http://www.w3.org/2000/svg" viewBox="0 0 512 512"><!--! Font Awesome Pro 6.6.0 by @fontawesome - https://fontawesome.com License - https://fontawesome.com/license (Commercial License) Copyright 2024 Fonticons, Inc. --><path d="M480 32l32 16L480 64 464 96 448 64 416 48l32-16L464 0l16 32zM48 128l16 32 32 16L64 192 48 224 32 192 0 176l32-16 16-32zM416 512l-120 0-80 0L96 512l0-64 320 0 0 64zM224 0l64 0 16 0 0 32-16 0-64 0-16 0 0-32 16 0zM176 128l160 0 16 0 0 32-16 0-160 0-16 0 0-32 16 0zM112 256l288 0 16 0 0 32-16 0-288 0-16 0 0-32 16 0zm64 128l160 0 16 0 0 32-16 0-160 0-16 0 0-32 16 0z"/></svg>

<svg xmlns="http://www.w3.org/2000/svg" viewBox="0 0 512 512"><!--! Font Awesome Pro 6.4.2 by @fontawesome - https://fontawesome.com License - https://fontawesome.com/license (Commercial License) Copyright 2023 Fonticons, Inc. --><path d="M480 32l32 16L480 64 464 96 448 64 416 48l32-16L464 0l16 32zM48 128l16 32 32 16L64 192 48 224 32 192 0 176l32-16 16-32zM416 512H296 216 96V448H416v64zM224 0h64 16V32H288 224 208V0h16zM176 128H336h16v32H336 176 160V128h16zM112 256H400h16v32H400 112 96V256h16zm64 128H336h16v32H336 176 160V384h16z"/></svg>
